X: 1
T: Dancing Bow, The
M: 4/4
L: 1/8
R: reel
K: Gmaj
G,2GE EDB,E|DEGA ~B3A|GBAG TE2 D2|ABcA dcAF|
GABG FGAF|EFGE TD2B,D|GBAG TE2ed|Bd A/A/B BAGD|
B,DGB AG F/E/D|B,D G2 ~B3A|~B3G DEGA|B/B/B cA dcAF|
GABG FGAF|EFGE DG,B,D|GBAG TE2ed|Bd A/A/B BAGE||
|:DG B/c/d g3e|fgaf gABc|dcBA ~G3B|ADFA dBcA|
[1GFGB ABcA|GECE D2B,D|GBAG TE2ed|B/c/d AB BAGE:|
[2GFGB ABcA|GECE DG,A,G,|G3D ED CD|DB,A,B, G,2G,A,|]
